client/src/assets/images/menu/subscriptions.svg

<?xml version="1.0" encoding="UTF-8"?>
<svg width="24px" height="24px" viewBox="0 0 24 24" version="1.1" xmlns="http://www.w3.org/2000/svg" xmlns:xlink="http://www.w3.org/1999/xlink">
    <defs>
        <linearGradient x1="50%" y1="0%" x2="50%" y2="97.3333865%" id="linearGradient-1">
            <stop stop-color="#000000" offset="0%"></stop>
            <stop stop-color="#000000" stop-opacity="0.247310915" offset="100%"></stop>
        </linearGradient>
        <linearGradient x1="50%" y1="0%" x2="50%" y2="97.8635204%" id="linearGradient-2">
            <stop stop-color="#000000" offset="0%"></stop>
            <stop stop-color="#000000" stop-opacity="0.250707654" offset="100%"></stop>
        </linearGradient>
    </defs>
    <g id="Page-1" stroke="none" stroke-width="1" fill="none" fill-rule="evenodd">
        <g id="Artboard-4" transform="translate(-532.000000, -775.000000)">
            <g id="312" transform="translate(532.000000, 775.000000)">
                <circle id="Oval-169" fill="#000000" cx="12" cy="10" r="3"></circle>
                <path d="M16.3851456,13.8501206 C17.4222377,12.6991612 18,11.4167199 18,10 C18,6.74089158 15.2591084,4 12,4 C8.74089158,4 6,6.74089158 6,10 C6,11.4186069 6.57916224,12.7027674 7.61838071,13.8540306 C7.80341316,14.0590125 8.11958231,14.0751848 8.32456427,13.8901523 C8.52954623,13.7051199 8.5457185,13.3889507 8.36068606,13.1839688 C7.47616718,12.2040844 7,11.148292 7,10 C7,7.29317633 9.29317633,5 12,5 C14.7068237,5 17,7.29317633 17,10 C17,11.1466944 16.5249958,12.2010466 15.6422459,13.1807178 C15.4573954,13.3858639 15.4738483,13.7020185 15.6789944,13.886869 C15.8841405,14.0717195 16.2002951,14.0552666 16.3851456,13.8501206 Z" id="Oval-169" fill="url(#linearGradient-1)" fill-rule="nonzero"></path>
                <path d="M17.5678226,18.3077078 C20.3159646,16.4626239 22,13.3733223 22,10 C22,4.4771525 17.5228475,0 12,0 C6.4771525,0 2,4.4771525 2,10 C2,13.3762414 3.68696556,16.4678678 6.43901638,18.3122954 C6.89779529,18.6197696 7.51896613,18.4971129 7.82644029,18.0383339 C8.13391444,17.579555 8.0112577,16.9583842 7.55247879,16.65091 C5.34877306,15.1739839 4,12.7021478 4,10 C4,5.581722 7.581722,2 12,2 C16.418278,2 20,5.581722 20,10 C20,12.699815 18.6535741,15.1697843 16.4529947,16.6472384 C15.9944687,16.9550897 15.8723227,17.5763611 16.180174,18.0348871 C16.4880252,18.4934131 17.1092967,18.6155591 17.5678226,18.3077078 Z" id="Oval-169" fill="url(#linearGradient-2)" fill-rule="nonzero"></path>
                <path d="M9.32918137,15.9750882 C9.14737952,14.8842771 9.89826062,14 10.9979131,14 L13.0020869,14 C14.1055038,14 14.8534426,14.8793447 14.6708186,15.9750882 L13.6633817,22.0197096 C13.5731485,22.561109 13.0573397,23 12.5010434,23 L11.4989566,23 C10.9472481,23 10.4276519,22.5659113 10.3366183,22.0197096 L9.32918137,15.9750882 Z" id="Rectangle-217" fill="#000000"></path>
            </g>
        </g>
    </g>
</svg>

<svg xmlns="http://www.w3.org/2000/svg" viewBox="0 0 24 24">
  <defs/>
  <defs>
    <linearGradient id="a" x1="50%" x2="50%" y1="0%" y2="97.33%">
      <stop stop-color="#000" offset="0%"/>
      <stop stop-color="#000" offset="100%" stop-opacity=".25"/>
    </linearGradient>
    <linearGradient id="b" x1="50%" x2="50%" y1="0%" y2="97.86%">
      <stop stop-color="#000" offset="0%"/>
      <stop stop-color="#000" offset="100%" stop-opacity=".25"/>
    </linearGradient>
  </defs>
  <g fill="none" fill-rule="evenodd">
    <circle cx="12" cy="10" r="3" fill="#000"/>
    <path fill="url(#a)" fill-rule="nonzero" d="M16.39 13.85A5.68 5.68 0 0018 10c0-3.26-2.74-6-6-6s-6 2.74-6 6c0 1.42.58 2.7 1.62 3.85a.5.5 0 00.74-.67A4.7 4.7 0 017 10c0-2.7 2.3-5 5-5s5 2.3 5 5a4.7 4.7 0 01-1.36 3.18.5.5 0 10.75.67z"/>
    <path fill="url(#b)" fill-rule="nonzero" d="M17.57 18.3A9.99 9.99 0 0012 0a10 10 0 00-5.56 18.31 1 1 0 101.11-1.66 7.99 7.99 0 118.9 0 1 1 0 101.12 1.66z"/>
    <path fill="#000" d="M9.33 15.98A1.64 1.64 0 0111 14h2c1.1 0 1.85.88 1.67 1.98l-1 6.04c-.1.54-.61.98-1.17.98h-1c-.55 0-1.07-.43-1.16-.98l-1.01-6.04z"/>
  </g>
</svg>
